dist/img/quotes.svg

<svg width="113" height="103" viewBox="0 0 113 103" fill="none" xmlns="http://www.w3.org/2000/svg">
<path opacity="0.2" d="M0 103V58.2332C0 42.947 4.31476 30.0872 12.9443 19.6537C21.5738 8.97762 31.9525 2.42638 44.0805 0V20.7456C29.8535 26.3263 22.7399 38.2155 22.7399 56.4134H44.0805V103H0ZM68.9195 103V58.2332C68.9195 42.947 73.2343 30.0872 81.8638 19.6537C90.4933 8.97762 100.872 2.42638 113 0V20.7456C98.773 26.3263 91.6594 38.2155 91.6594 56.4134H113V103H68.9195Z" fill="#4C9E50"/>
</svg>

<svg width="113" height="103" viewBox="0 0 113 103" fill="none" xmlns="http://www.w3.org/2000/svg"><path opacity=".2" d="M0 103V58.233c0-15.286 4.315-28.146 12.944-38.58C21.574 8.979 31.953 2.427 44.081 0v20.746c-14.228 5.58-21.341 17.47-21.341 35.667h21.34V103H0zm68.92 0V58.233c0-15.286 4.314-28.146 12.944-38.58C90.494 8.979 100.872 2.427 113 0v20.746c-14.227 5.58-21.34 17.47-21.34 35.667H113V103H68.92z" fill="#4C9E50"/></svg>2155 91.6594 56.4134H113V103H68.9195Z" fill="#4C9E50"/>
</svg>
